src/assets/images/toolbox/linkedin.svg

<svg
  width="32"
  height="32"
  viewBox="0 0 32 32"
  fill="transparent"
  xmlns="http://www.w3.org/2000/svg">
  <path
    fill="#0A66C2"
    d="M27.2655 27.2659H22.5241V19.8405C22.5241 18.0699 22.4925 15.7905 20.0581 15.7905C17.5886 15.7905 17.2108 17.7197 17.2108 19.7116V27.2654H12.4695V11.9959H17.0211V14.0826H17.0849C17.5404 13.3038 18.1986 12.663 18.9895 12.2286C19.7803 11.7943 20.6742 11.5825 21.5759 11.616C26.3815 11.616 27.2675 14.777 27.2675 18.8892L27.2655 27.2659ZM7.1195 9.90875C5.59988 9.909 4.36775 8.67725 4.3675 7.15762C4.36725 5.638 5.59887 4.40587 7.1185 4.40562C8.63812 4.40525 9.87025 5.637 9.8705 7.15662C9.87063 7.88638 9.58087 8.5863 9.06497 9.10242C8.54906 9.61854 7.84925 9.90858 7.1195 9.90875ZM9.49025 27.266H4.74388V11.9959H9.49012L9.49025 27.266ZM29.6293 0.00224888H2.36137C1.07262 -0.0122511 0.01575 1.02012 0 2.30887V29.6905C0.01525 30.9799 1.072 32.0132 2.36125 31.9997H29.6293C30.9213 32.0157 31.9821 30.9824 32 29.6905V2.30675C31.9816 1.0155 30.9206 -0.0167511 29.6293 0.000123878"
  />
</svg>

<svg xmlns="http://www.w3.org/2000/svg" width="32" height="32" fill="transparent" xmlns:v="https://vecta.io/nano">
  <path fill="#0a66c2"
    d="M27.266 27.266h-4.741v-7.425c0-1.771-.032-4.05-2.466-4.05-2.469 0-2.847 1.929-2.847 3.921v7.554H12.47V11.996h4.552v2.087h.064a4.99 4.99 0 0 1 4.491-2.467c4.806 0 5.692 3.161 5.692 7.273l-.002 8.377zM7.12 9.909a2.75 2.75 0 0 1-.001-5.503 2.75 2.75 0 0 1 1.946 4.697 2.75 2.75 0 0 1-1.945.806zM9.49 27.266H4.744v-15.27H9.49v15.27zM29.629.002H2.361C1.073-.012.016 1.02 0 2.309v27.382A2.34 2.34 0 0 0 2.361 32h27.268A2.34 2.34 0 0 0 32 29.691V2.307A2.34 2.34 0 0 0 29.629 0" />
</svg>
